src/lib/packages/icons/src/assets/filled/volume-high.svg

<svg width="24" height="24" viewBox="0 0 24 24" fill="none" xmlns="http://www.w3.org/2000/svg">
<path d="M3.5 6.99989H5.26697C5.74097 6.99989 6.19906 6.83177 6.56006 6.52577L10.251 3.39882C11.336 2.47982 13.001 3.25099 13.001 4.67299V19.3268C13.001 20.7488 11.336 21.521 10.251 20.601L6.56006 17.474C6.19906 17.168 5.74097 16.9999 5.26697 16.9999H3.5C2.672 16.9999 2 16.3279 2 15.4999V8.50087C2 7.67187 2.672 6.99989 3.5 6.99989ZM16.767 16.7709C18.046 15.4979 18.75 13.8029 18.75 11.9999C18.75 10.1969 18.046 8.5019 16.767 7.2289C16.473 6.9369 15.9981 6.93685 15.7061 7.23085C15.4131 7.52385 15.415 7.99988 15.708 8.29188C16.702 9.28188 17.25 10.5999 17.25 12.0009C17.25 13.4019 16.702 14.7199 15.708 15.7099C15.415 16.0019 15.4131 16.4769 15.7061 16.7709C15.8521 16.9179 16.0451 16.9918 16.2371 16.9918C16.4291 16.9898 16.62 16.9169 16.767 16.7709ZM19.067 19.82C18.875 19.82 18.682 19.747 18.536 19.6C18.244 19.307 18.244 18.832 18.538 18.539C20.287 16.795 21.25 14.4729 21.25 11.9999C21.25 9.52689 20.287 7.20583 18.538 5.46083C18.244 5.16783 18.244 4.69279 18.536 4.39979C18.828 4.10679 19.303 4.10582 19.597 4.39882C21.63 6.42682 22.75 9.12689 22.75 11.9999C22.75 14.8729 21.63 17.573 19.597 19.601C19.45 19.747 19.259 19.82 19.067 19.82Z" fill="currentColor"/>
</svg>

<svg xmlns="http://www.w3.org/2000/svg" width="24" height="24" fill="none"><path fill="currentColor" d="M3.5 7h1.767a2 2 0 0 0 1.293-.474l3.691-3.127c1.085-.92 2.75-.148 2.75 1.274v14.654c0 1.422-1.665 2.194-2.75 1.274l-3.69-3.127A2 2 0 0 0 5.266 17H3.5A1.5 1.5 0 0 1 2 15.5v-7A1.5 1.5 0 0 1 3.5 7Zm13.267 9.77A6.687 6.687 0 0 0 18.75 12a6.687 6.687 0 0 0-1.983-4.771.75.75 0 1 0-1.059 1.063A5.202 5.202 0 0 1 17.25 12a5.202 5.202 0 0 1-1.542 3.709.75.75 0 1 0 1.059 1.06Zm2.3 3.05a.75.75 0 0 1-.529-1.281 9.171 9.171 0 0 0 2.712-6.54 9.173 9.173 0 0 0-2.712-6.538.75.75 0 1 1 1.059-1.062 10.666 10.666 0 0 1 3.153 7.6c0 2.874-1.12 5.574-3.153 7.602a.749.749 0 0 1-.53.219Z"/></svg>
